Papirus/48x48/apps/org.gnome.DiskUtility.svg

<svg xmlns="http://www.w3.org/2000/svg" width="48" height="48" version="1.1">
 <rect style="opacity:0.2" width="30" height="40" x="9" y="5" rx="3" ry="3.253"/>
 <rect style="fill:#e4e4e4" width="30" height="40" x="9" y="4" rx="3" ry="3.253"/>
 <path style="fill:#ababab" d="m 12,6 c -0.552285,0 -1,0.4477153 -1,1 0,0.5522847 0.447715,1 1,1 0.552285,0 1,-0.4477153 1,-1 0,-0.5522847 -0.447715,-1 -1,-1 z m 4.054688,0 c -0.800222,0 -1.44336,0.669 -1.44336,1.5 0,1.2426413 -0.969394,2.25 -2.166016,2.25 C 11.645093,9.75 11,10.419 11,11.25 v 3 c 0,0.831001 0.645091,1.5 1.445312,1.5 1.196622,0 2.166016,1.007358 2.166016,2.25 -0.0012,0.553932 -0.198108,1.08802 -0.554687,1.5 -2.138561,2.472236 -3.05152,5.676756 -3.056641,9 0,0.04461 0.0054,0.07549 0.0059,0.119141 C 11.002046,28.746059 11.000093,28.873025 11,29 c 0,7.179702 5.820298,13 13,13 7.179702,0 13,-5.820298 13,-13 6.3e-5,-0.132183 -0.0019,-0.26436 -0.0059,-0.396484 C 36.994455,28.565463 37,28.538778 37,28.5 36.9943,25.176442 36.082755,21.971883 33.943359,19.5 33.58691,19.087968 33.389543,18.553883 33.388672,18 c 0,-1.242642 0.969397,-2.25 2.166016,-2.25 C 36.354909,15.75 37,15.081001 37,14.25 v -3 c 0,-0.831 -0.645091,-1.5 -1.445312,-1.5 -1.196619,0 -2.166016,-1.0073587 -2.166016,-2.25 0,-0.831 -0.643138,-1.5 -1.44336,-1.5 z M 36,6 c -0.552285,0 -1,0.4477153 -1,1 0,0.5522847 0.447715,1 1,1 0.552285,0 1,-0.4477153 1,-1 C 37,6.4477153 36.552285,6 36,6 Z M 12,17 c -0.552285,0 -1,0.447715 -1,1 0,0.552285 0.447715,1 1,1 0.552285,0 1,-0.447715 1,-1 0,-0.552285 -0.447715,-1 -1,-1 z m 24,0 c -0.552285,0 -1,0.447715 -1,1 0,0.552285 0.447715,1 1,1 0.552285,0 1,-0.447715 1,-1 0,-0.552285 -0.447715,-1 -1,-1 z M 12,40 c -0.552285,0 -1,0.447715 -1,1 0,0.552285 0.447715,1 1,1 0.552285,0 1,-0.447715 1,-1 0,-0.552285 -0.447715,-1 -1,-1 z m 24,0 c -0.552285,0 -1,0.447715 -1,1 0,0.552285 0.447715,1 1,1 0.552285,0 1,-0.447715 1,-1 0,-0.552285 -0.447715,-1 -1,-1 z"/>
 <path style="opacity:0.1" d="m 12,6 c -0.552285,0 -1,0.4477153 -1,1 2.41e-4,0.1756086 0.04672,0.3480575 0.134766,0.5 C 11.313257,7.1908437 11.643017,7.0002826 12,7 12.356983,7.0002826 12.686743,7.1908437 12.865234,7.5 12.953279,7.3480575 12.999759,7.1756086 13,7 13,6.4477153 12.552285,6 12,6 Z m 4.054688,0 c -0.800222,0 -1.44336,0.669 -1.44336,1.5 0,1.2426413 -0.969394,2.25 -2.166016,2.25 C 11.645093,9.75 11,10.419 11,11.25 v 1 c 0,-0.831 0.645094,-1.5 1.445312,-1.5 1.196623,0 2.166016,-1.0073587 2.166016,-2.25 0,-0.831 0.643138,-1.5 1.44336,-1.5 h 15.890624 c 0.800222,0 1.44336,0.669 1.44336,1.5 0,1.2426413 0.969397,2.25 2.166016,2.25 C 36.354909,10.75 37,11.419 37,12.25 v -1 c 0,-0.831 -0.645091,-1.5 -1.445312,-1.5 -1.196619,0 -2.166016,-1.0073587 -2.166016,-2.25 0,-0.831 -0.643138,-1.5 -1.44336,-1.5 z M 36,6 c -0.552285,0 -1,0.4477153 -1,1 2.41e-4,0.1756086 0.04672,0.3480575 0.134766,0.5 C 35.313257,7.1908437 35.643017,7.0002826 36,7 36.356983,7.0002826 36.686743,7.1908437 36.865234,7.5 36.953279,7.3480575 36.999759,7.1756086 37,7 37,6.4477153 36.552285,6 36,6 Z M 12,17 c -0.552285,0 -1,0.447715 -1,1 2.41e-4,0.175609 0.04672,0.348057 0.134766,0.5 C 11.313257,18.190844 11.643017,18.000283 12,18 c 0.356983,2.83e-4 0.686743,0.190844 0.865234,0.5 C 12.953279,18.348057 12.999759,18.175609 13,18 13,17.447715 12.552285,17 12,17 Z m 24,0 c -0.552285,0 -1,0.447715 -1,1 2.41e-4,0.175609 0.04672,0.348057 0.134766,0.5 C 35.313257,18.190844 35.643017,18.000283 36,18 c 0.356983,2.83e-4 0.686743,0.190844 0.865234,0.5 C 36.953279,18.348057 36.999759,18.175609 37,18 37,17.447715 36.552285,17 36,17 Z M 14.550781,18.494141 C 14.469509,18.86497 14.304978,19.213079 14.056641,19.5 11.91808,21.972236 11.005121,25.176756 11,28.5 c 0,0.04461 0.0054,0.07549 0.0059,0.119141 C 11.002046,28.746059 11.000093,28.873025 11,29 c 3.86e-4,0.116557 0.0023,0.233104 0.0059,0.349609 0.03222,-3.269183 0.944639,-6.41485 3.050782,-8.849609 0.356579,-0.41198 0.553487,-0.946068 0.554687,-1.5 0,-0.174747 -0.02427,-0.342566 -0.06055,-0.505859 z m 18.898438,0 c -0.03628,0.163293 -0.06055,0.331112 -0.06055,0.505859 8.71e-4,0.553883 0.198238,1.087968 0.554687,1.5 2.109909,2.437813 3.020474,5.588881 3.050782,8.863281 0.0036,-0.12106 0.0056,-0.242166 0.0059,-0.363281 6.3e-5,-0.132183 -0.0019,-0.26436 -0.0059,-0.396484 C 36.994455,28.565463 37,28.538778 37,28.5 c -0.0057,-3.323558 -0.917245,-6.528117 -3.056641,-9 -0.248246,-0.286957 -0.412852,-0.635044 -0.49414,-1.005859 z M 12,40 c -0.552285,0 -1,0.447715 -1,1 2.41e-4,0.175609 0.04672,0.348057 0.134766,0.5 C 11.313257,41.190844 11.643017,41.000283 12,41 c 0.356983,2.83e-4 0.686743,0.190844 0.865234,0.5 C 12.953279,41.348057 12.999759,41.175609 13,41 13,40.447715 12.552285,40 12,40 Z m 24,0 c -0.552285,0 -1,0.447715 -1,1 2.41e-4,0.175609 0.04672,0.348057 0.134766,0.5 C 35.313257,41.190844 35.643017,41.000283 36,41 c 0.356983,2.83e-4 0.686743,0.190844 0.865234,0.5 C 36.953279,41.348057 36.999759,41.175609 37,41 37,40.447715 36.552285,40 36,40 Z"/>
 <path style="opacity:0.1" d="m 23.512309,18 c -0.866829,0 -1.707002,0.199291 -2.481742,0.46917 l 4.091527,4.088144 c 0.840811,0.840098 0.840811,2.17569 0,3.015835 l -1.542707,1.541429 c -0.840815,0.840098 -2.177527,0.840098 -3.018342,0 L 16.469522,23.026437 C 16.1994,23.800503 16,24.639996 16,25.506116 c 0,4.145504 3.363377,7.506073 7.512309,7.506073 0.866832,0 1.707006,-0.199291 2.48175,-0.469123 l 11.144193,11.158601 c 3.582108,3.588995 8.072098,-1.039625 4.628107,-4.490235 L 30.555097,27.985799 c 0.270117,-0.774067 0.469514,-1.61356 0.469514,-2.479679 C 31.024611,21.360616 27.661238,18 23.512301,18 Z"/>
 <path style="fill:#4f4f4f" d="m 23.512309,17 c -0.866829,0 -1.707002,0.199291 -2.481742,0.46917 l 4.091527,4.088144 c 0.840811,0.840098 0.840811,2.17569 0,3.015835 l -1.542707,1.541429 c -0.840815,0.840098 -2.177527,0.840098 -3.018342,0 L 16.469522,22.026437 C 16.1994,22.800503 16,23.639996 16,24.506116 c 0,4.145504 3.363377,7.506073 7.512309,7.506073 0.866832,0 1.707006,-0.199291 2.48175,-0.469123 l 11.144193,11.158601 c 3.582108,3.588995 8.072098,-1.039625 4.628107,-4.490235 L 30.555097,26.985799 c 0.270117,-0.774067 0.469514,-1.61356 0.469514,-2.479679 C 31.024611,20.360616 27.661238,17 23.512301,17 Z"/>
 <path style="fill:#ffffff;opacity:0.2" d="M 12 4 C 10.338 4 9 5.4499311 9 7.2519531 L 9 8.2519531 C 9 6.4499311 10.338 5 12 5 L 36 5 C 37.662 5 39 6.4499311 39 8.2519531 L 39 7.2519531 C 39 5.4499311 37.662 4 36 4 L 12 4 z"/>
</svg>

<svg xmlns="http://www.w3.org/2000/svg" width="48" height="48" version="1.1">
 <rect style="opacity:0.2" width="30" height="40" x="9" y="5" rx="3" ry="3.253"/>
 <rect style="fill:#e4e4e4" width="30" height="40" x="9" y="4" rx="3" ry="3.253"/>
 <path style="fill:#ababab" d="M 12 6 A 1 1 0 0 0 11 7 A 1 1 0 0 0 12 8 A 1 1 0 0 0 13 7 A 1 1 0 0 0 12 6 z M 16.054688 6 C 15.254466 6 14.611328 6.669 14.611328 7.5 C 14.611328 8.7426413 13.641934 9.75 12.445312 9.75 C 11.645093 9.75 11 10.419 11 11.25 L 11 14.25 C 11 15.081001 11.645091 15.75 12.445312 15.75 C 13.641934 15.75 14.611328 16.757358 14.611328 18 C 14.610128 18.553932 14.41322 19.08802 14.056641 19.5 C 11.91808 21.972236 11.005121 25.176756 11 28.5 C 11 28.544614 11.005444 28.575487 11.005859 28.619141 A 13 13 0 0 0 11 29 A 13 13 0 0 0 24 42 A 13 13 0 0 0 37 29 A 13 13 0 0 0 36.994141 28.603516 C 36.994455 28.565463 37 28.538778 37 28.5 C 36.9943 25.176442 36.082755 21.971883 33.943359 19.5 C 33.58691 19.087968 33.389543 18.553883 33.388672 18 C 33.388672 16.757358 34.358069 15.75 35.554688 15.75 C 36.354909 15.75 37 15.081001 37 14.25 L 37 11.25 C 37 10.419 36.354909 9.75 35.554688 9.75 C 34.358069 9.75 33.388672 8.7426413 33.388672 7.5 C 33.388672 6.669 32.745534 6 31.945312 6 L 16.054688 6 z M 36 6 A 1 1 0 0 0 35 7 A 1 1 0 0 0 36 8 A 1 1 0 0 0 37 7 A 1 1 0 0 0 36 6 z M 12 17 A 1 1 0 0 0 11 18 A 1 1 0 0 0 12 19 A 1 1 0 0 0 13 18 A 1 1 0 0 0 12 17 z M 36 17 A 1 1 0 0 0 35 18 A 1 1 0 0 0 36 19 A 1 1 0 0 0 37 18 A 1 1 0 0 0 36 17 z M 23.947266 26 A 2.9999996 2.9999995 0 0 1 23.949219 26 A 2.9999996 2.9999995 0 0 1 24 26 A 2.9999996 2.9999995 0 0 1 27 29 A 2.9999996 2.9999995 0 0 1 24 32 A 2.9999996 2.9999995 0 0 1 21 29 A 2.9999996 2.9999995 0 0 1 23.947266 26 z M 12 40 A 1 1 0 0 0 11 41 A 1 1 0 0 0 12 42 A 1 1 0 0 0 13 41 A 1 1 0 0 0 12 40 z M 36 40 A 1 1 0 0 0 35 41 A 1 1 0 0 0 36 42 A 1 1 0 0 0 37 41 A 1 1 0 0 0 36 40 z"/>
 <path style="opacity:0.1" d="M 12 6 A 1 1 0 0 0 11 7 A 1 1 0 0 0 11.134766 7.5 A 1 1 0 0 1 12 7 A 1 1 0 0 1 12.865234 7.5 A 1 1 0 0 0 13 7 A 1 1 0 0 0 12 6 z M 16.054688 6 C 15.254466 6 14.611328 6.669 14.611328 7.5 C 14.611328 8.7426413 13.641934 9.75 12.445312 9.75 C 11.645093 9.75 11 10.419 11 11.25 L 11 12.25 C 11 11.419 11.645094 10.75 12.445312 10.75 C 13.641935 10.75 14.611328 9.7426413 14.611328 8.5 C 14.611328 7.669 15.254466 7 16.054688 7 L 31.945312 7 C 32.745534 7 33.388672 7.669 33.388672 8.5 C 33.388672 9.7426413 34.358069 10.75 35.554688 10.75 C 36.354909 10.75 37 11.419 37 12.25 L 37 11.25 C 37 10.419 36.354909 9.75 35.554688 9.75 C 34.358069 9.75 33.388672 8.7426413 33.388672 7.5 C 33.388672 6.669 32.745534 6 31.945312 6 L 16.054688 6 z M 36 6 A 1 1 0 0 0 35 7 A 1 1 0 0 0 35.134766 7.5 A 1 1 0 0 1 36 7 A 1 1 0 0 1 36.865234 7.5 A 1 1 0 0 0 37 7 A 1 1 0 0 0 36 6 z M 12 17 A 1 1 0 0 0 11 18 A 1 1 0 0 0 11.134766 18.5 A 1 1 0 0 1 12 18 A 1 1 0 0 1 12.865234 18.5 A 1 1 0 0 0 13 18 A 1 1 0 0 0 12 17 z M 36 17 A 1 1 0 0 0 35 18 A 1 1 0 0 0 35.134766 18.5 A 1 1 0 0 1 36 18 A 1 1 0 0 1 36.865234 18.5 A 1 1 0 0 0 37 18 A 1 1 0 0 0 36 17 z M 14.550781 18.494141 C 14.469509 18.86497 14.304978 19.213079 14.056641 19.5 C 11.91808 21.972236 11.005121 25.176756 11 28.5 C 11 28.544614 11.005444 28.575487 11.005859 28.619141 A 13 13 0 0 0 11 29 A 13 13 0 0 0 11.005859 29.349609 C 11.038081 26.080426 11.950498 22.934759 14.056641 20.5 C 14.41322 20.08802 14.610128 19.553932 14.611328 19 C 14.611328 18.825253 14.587058 18.657434 14.550781 18.494141 z M 33.449219 18.494141 C 33.412942 18.657434 33.388672 18.825253 33.388672 19 C 33.389543 19.553883 33.58691 20.087968 33.943359 20.5 C 36.053268 22.937813 36.963833 26.088881 36.994141 29.363281 A 13 13 0 0 0 37 29 A 13 13 0 0 0 36.994141 28.603516 C 36.994455 28.565463 37 28.538778 37 28.5 C 36.9943 25.176442 36.082755 21.971883 33.943359 19.5 C 33.695113 19.213043 33.530507 18.864956 33.449219 18.494141 z M 26.957031 29.498047 A 2.9999996 2.9999995 0 0 1 24 32 A 2.9999996 2.9999995 0 0 1 21.042969 29.501953 A 2.9999996 2.9999995 0 0 0 21 30 A 2.9999996 2.9999995 0 0 0 24 33 A 2.9999996 2.9999995 0 0 0 27 30 A 2.9999996 2.9999995 0 0 0 26.957031 29.498047 z M 12 40 A 1 1 0 0 0 11 41 A 1 1 0 0 0 11.134766 41.5 A 1 1 0 0 1 12 41 A 1 1 0 0 1 12.865234 41.5 A 1 1 0 0 0 13 41 A 1 1 0 0 0 12 40 z M 36 40 A 1 1 0 0 0 35 41 A 1 1 0 0 0 35.134766 41.5 A 1 1 0 0 1 36 41 A 1 1 0 0 1 36.865234 41.5 A 1 1 0 0 0 37 41 A 1 1 0 0 0 36 40 z"/>
 <path style="opacity:0.1" d="m 23.512309,18 c -0.866829,0 -1.707002,0.199291 -2.481742,0.46917 l 4.091527,4.088144 c 0.840811,0.840098 0.840811,2.17569 0,3.015835 l -1.542707,1.541429 c -0.840815,0.840098 -2.177527,0.840098 -3.018342,0 L 16.469522,23.026437 C 16.1994,23.800503 16,24.639996 16,25.506116 c 0,4.145504 3.363377,7.506073 7.512309,7.506073 0.866832,0 1.707006,-0.199291 2.48175,-0.469123 l 11.144193,11.158601 c 3.582108,3.588995 8.072098,-1.039625 4.628107,-4.490235 L 30.555097,27.985799 c 0.270117,-0.774067 0.469514,-1.61356 0.469514,-2.479679 C 31.024611,21.360616 27.661238,18 23.512301,18 Z"/>
 <path style="fill:#4f4f4f" d="m 23.512309,17 c -0.866829,0 -1.707002,0.199291 -2.481742,0.46917 l 4.091527,4.088144 c 0.840811,0.840098 0.840811,2.17569 0,3.015835 l -1.542707,1.541429 c -0.840815,0.840098 -2.177527,0.840098 -3.018342,0 L 16.469522,22.026437 C 16.1994,22.800503 16,23.639996 16,24.506116 c 0,4.145504 3.363377,7.506073 7.512309,7.506073 0.866832,0 1.707006,-0.199291 2.48175,-0.469123 l 11.144193,11.158601 c 3.582108,3.588995 8.072098,-1.039625 4.628107,-4.490235 L 30.555097,26.985799 c 0.270117,-0.774067 0.469514,-1.61356 0.469514,-2.479679 C 31.024611,20.360616 27.661238,17 23.512301,17 Z"/>
 <path style="fill:#ffffff;opacity:0.2" d="M 12 4 C 10.338 4 9 5.4499311 9 7.2519531 L 9 8.2519531 C 9 6.4499311 10.338 5 12 5 L 36 5 C 37.662 5 39 6.4499311 39 8.2519531 L 39 7.2519531 C 39 5.4499311 37.662 4 36 4 L 12 4 z"/>
</svg>
